icons/1_Primary/Stripchat.svg

<svg width="1024" height="1024" viewBox="0 0 1024 1024" fill="none" xmlns="http://www.w3.org/2000/svg">
<g clip-path="url(#clip0_2_3570)">
<path d="M512 1024C794.77 1024 1024 794.77 1024 512C1024 229.23 794.77 0 512 0C229.23 0 0 229.23 0 512C0 794.77 229.23 1024 512 1024Z" fill="#BA6561"/>
<path d="M450 698.61C460.53 699.78 469.9 703.29 481.6 703.29C483.94 703.29 490.96 700.95 490.96 693.93V560.52C490.96 555.84 488.62 548.82 485.11 548.82L383.27 441.14C380.93 438.8 378.59 432.95 378.59 429.44V436.44C378.572 435.206 378.803 433.981 379.267 432.837C379.731 431.694 380.42 430.655 381.292 429.782C382.165 428.91 383.204 428.221 384.347 427.757C385.491 427.293 386.716 427.062 387.95 427.08H630.2C636.05 427.08 639.56 430.59 639.56 436.44V429.44C639.56 432.95 638.39 438.8 634.88 441.14L533.07 550C529.56 550 527.22 557 527.22 561.7V695.1C527.22 702.1 533.07 704.46 536.58 704.46C674.67 693.93 780 596.79 780 479.76C780 359.22 661.8 257.4 513.17 257.4C361 257.41 244 360.39 244 479.76C244 532.42 265.07 581.58 302.52 620.2L318.9 637.75C323.58 642.43 328.26 650.62 323.58 658.82C321.24 667.01 311.88 682.23 311.88 682.23L283.79 732.55L274.43 746.55C311.88 740.7 346.99 731.34 382.1 719.63L417.21 702.08C417.21 702.08 414.87 705.59 421.89 702.08C428.89 699.74 438.27 696.23 447.64 699.74H451.15L450 698.61Z" fill="white"/>
</g>
<defs>
<clipPath id="clip0_2_3570">
<rect width="1024" height="1024" fill="white"/>
</clipPath>
</defs>
</svg>

<svg xmlns="http://www.w3.org/2000/svg" viewBox="0 0 1024 1024">
   <circle cx="512" cy="512" r="512" style="fill:#a2252d"/>
   <path d="M450 698.61c10.53 1.17 19.9 4.68 31.6 4.68 2.34 0 9.36-2.34 9.36-9.36V560.52c0-4.68-2.34-11.7-5.85-11.7L383.27 441.14c-2.34-2.34-4.68-8.19-4.68-11.7v7a9.23 9.23 0 0 1 9.36-9.36H630.2c5.85 0 9.36 3.51 9.36 9.36v-7c0 3.51-1.17 9.36-4.68 11.7L533.07 550c-3.51 0-5.85 7-5.85 11.7v133.4c0 7 5.85 9.36 9.36 9.36C674.67 693.93 780 596.79 780 479.76c0-120.54-118.2-222.36-266.83-222.36C361 257.41 244 360.39 244 479.76c0 52.66 21.07 101.82 58.52 140.44l16.38 17.55c4.68 4.68 9.36 12.87 4.68 21.07-2.34 8.19-11.7 23.41-11.7 23.41l-28.09 50.32-9.36 14c37.45-5.85 72.56-15.21 107.67-26.92l35.11-17.55s-2.34 3.51 4.68 0c7-2.34 16.38-5.85 25.75-2.34h3.51Z" style="fill:#fff"/>
</svg>
